X:355
T:Jenny Drinks Nae Water
R:Country Dance
B:The Athole Collection
M:C|
L:1/8
K:D
Bc|dcBA d3f|e2E2E2Bc|dBcA d3A|F2D2D2a2|faba fgaf|
gfed e2de|f2ed BdAd|F2D2D2:|
|:Bc|dcBA BcdB|edcB cdec|dcde defg|abag fgaf|gaba fgaf|
gfed e2de|f2ed BdAd|F2D2D2:|

